src/lib/packages/icons/src/assets/filled/whistle.svg

<svg width="24" height="24" viewBox="0 0 24 24" fill="none" xmlns="http://www.w3.org/2000/svg">
<path d="M20.5 9H15.36C15.14 9 14.95 9.14 14.89 9.34L14.62 10.16C14.55 10.36 14.36 10.5 14.15 10.5H12.87C12.65 10.5 12.46 10.36 12.4 10.16L12.13 9.34C12.06 9.14 11.87 9 11.66 9H9.02002C8.48002 9 7.96 9.10001 7.44 9.24001L6.60999 8.41C5.72999 7.53 4.30999 7.53 3.42999 8.41C2.99999 8.84 2.77002 9.4 2.77002 10C2.77002 10.6 3.00999 11.16 3.42999 11.59L3.84998 12.01C2.51998 14.3 2.82003 17.28 4.78003 19.24C7.12003 21.59 10.92 21.59 13.26 19.24C14.51 18 15.09 16.35 15.01 14.72L20.66 13.1C20.87 13.04 21.02 12.84 21.02 12.62V9.5C21.02 9.22 20.8 9 20.52 9H20.5ZM4.46997 10.53C4.32997 10.39 4.25 10.2 4.25 10C4.25 9.8 4.32997 9.61 4.46997 9.47C4.75997 9.18 5.24003 9.18 5.53003 9.47L5.92999 9.87C5.51999 10.12 5.12002 10.4 4.77002 10.76C4.76002 10.77 4.74999 10.78 4.73999 10.79L4.47998 10.53H4.46997ZM10.41 16.41C9.62997 17.19 8.36002 17.19 7.58002 16.41C6.80002 15.63 6.80002 14.36 7.58002 13.58C8.36002 12.8 9.62997 12.8 10.41 13.58C11.19 14.36 11.19 15.63 10.41 16.41ZM12.75 5V3C12.75 2.59 13.09 2.25 13.5 2.25C13.91 2.25 14.25 2.59 14.25 3V5C14.25 5.41 13.91 5.75 13.5 5.75C13.09 5.75 12.75 5.41 12.75 5ZM15.47 6.28C15.18 5.99 15.18 5.51 15.47 5.22L16.47 4.22C16.76 3.93 17.24 3.93 17.53 4.22C17.82 4.51 17.82 4.99 17.53 5.28L16.53 6.28C16.38 6.43 16.19 6.5 16 6.5C15.81 6.5 15.62 6.43 15.47 6.28ZM9.46997 5.28C9.17997 4.99 9.17997 4.51 9.46997 4.22C9.75997 3.93 10.24 3.93 10.53 4.22L11.53 5.22C11.82 5.51 11.82 5.99 11.53 6.28C11.38 6.43 11.19 6.5 11 6.5C10.81 6.5 10.62 6.43 10.47 6.28L9.46997 5.28Z" fill="currentColor"/>
</svg>

<svg xmlns="http://www.w3.org/2000/svg" width="24" height="24" fill="none"><path fill="currentColor" d="M20.5 9h-5.14c-.22 0-.41.14-.47.34l-.27.82c-.07.2-.26.34-.47.34h-1.28c-.22 0-.41-.14-.47-.34l-.27-.82a.505.505 0 0 0-.47-.34H9.02c-.54 0-1.06.1-1.58.24l-.83-.83c-.88-.88-2.3-.88-3.18 0-.43.43-.66.99-.66 1.59 0 .6.24 1.16.66 1.59l.42.42c-1.33 2.29-1.03 5.27.93 7.23a5.981 5.981 0 0 0 8.48 0 5.927 5.927 0 0 0 1.75-4.52l5.65-1.62c.21-.06.36-.26.36-.48V9.5c0-.28-.22-.5-.5-.5h-.02ZM4.47 10.53a.75.75 0 1 1 1.06-1.06l.4.4c-.41.25-.81.53-1.16.89l-.03.03-.26-.26h-.01Zm5.94 5.88c-.78.78-2.05.78-2.83 0-.78-.78-.78-2.05 0-2.83.78-.78 2.05-.78 2.83 0 .78.78.78 2.05 0 2.83ZM12.75 5V3c0-.41.34-.75.75-.75s.75.34.75.75v2c0 .41-.34.75-.75.75s-.75-.34-.75-.75Zm2.72 1.28a.754.754 0 0 1 0-1.06l1-1c.29-.29.77-.29 1.06 0 .29.29.29.77 0 1.06l-1 1c-.15.15-.34.22-.53.22s-.38-.07-.53-.22Zm-6-1a.754.754 0 0 1 0-1.06c.29-.29.77-.29 1.06 0l1 1c.29.29.29.77 0 1.06-.15.15-.34.22-.53.22s-.38-.07-.53-.22l-1-1Z"/></svg>
